static/assets/images/icons/gas.svg

<svg width="256" height="256" viewBox="0 0 256 256" fill="none" xmlns="http://www.w3.org/2000/svg">
<path d="M41.8776 196.916V49.8073C41.8776 47.2062 42.9096 44.7117 44.7467 42.8725C46.5838 41.0333 49.0754 40 51.6735 40H139.837C142.435 40 144.926 41.0333 146.763 42.8725C148.601 44.7117 149.633 47.2062 149.633 49.8073V128.265H169.224C174.421 128.265 179.404 130.332 183.078 134.01C186.752 137.689 188.816 142.678 188.816 147.88V187.109C188.816 189.71 189.848 192.204 191.685 194.044C193.523 195.883 196.014 196.916 198.612 196.916C201.21 196.916 203.702 195.883 205.539 194.044C207.376 192.204 208.408 189.71 208.408 187.109V118.458H188.816C186.218 118.458 183.727 117.425 181.89 115.586C180.052 113.746 179.02 111.252 179.02 108.651V73.482L169.706 64.157C165.884 60.3308 165.884 54.1319 169.706 50.3057C173.534 46.4731 179.746 46.4731 183.574 50.3056L225.13 91.9098C226.041 92.8193 226.763 93.9001 227.256 95.09C227.748 96.2799 228.001 97.5555 228 98.8436V187.109C228 194.912 224.904 202.396 219.393 207.913C213.881 213.431 206.406 216.531 198.612 216.531C190.818 216.531 183.343 213.431 177.832 207.913C172.321 202.396 169.224 194.912 169.224 187.109V147.88H149.633V196.916H153.703C159.119 196.916 163.51 201.307 163.51 206.723C163.51 212.14 159.119 216.531 153.703 216.531H37.8073C32.3909 216.531 28 212.14 28 206.723C28 201.307 32.3909 196.916 37.8073 196.916H41.8776ZM71.4694 59.6145C65.9465 59.6145 61.4694 64.0917 61.4694 69.6145V108.458C61.4694 113.981 65.9465 118.458 71.4694 118.458H120.041C125.564 118.458 130.041 113.981 130.041 108.458V69.6145C130.041 64.0917 125.564 59.6145 120.041 59.6145H71.4694Z" fill="black"/>
</svg>

<svg xmlns="http://www.w3.org/2000/svg" fill="none" viewBox="0 0 256 256"><path fill="#000" d="M41.878 196.916V49.807a9.8 9.8 0 0 1 2.869-6.934A9.8 9.8 0 0 1 51.673 40h88.164a9.8 9.8 0 0 1 6.926 2.873 9.8 9.8 0 0 1 2.87 6.934v78.458h19.591c5.197 0 10.18 2.067 13.854 5.745a19.63 19.63 0 0 1 5.738 13.87v39.229a9.82 9.82 0 0 0 2.869 6.935 9.793 9.793 0 0 0 16.723-6.935v-68.651h-19.592a9.8 9.8 0 0 1-6.926-2.872 9.8 9.8 0 0 1-2.87-6.935V73.482l-9.314-9.325c-3.822-3.826-3.822-10.025 0-13.851 3.828-3.833 10.04-3.833 13.868 0L225.13 91.91a9.8 9.8 0 0 1 2.87 6.934v88.265a29.44 29.44 0 0 1-8.607 20.804 29.37 29.37 0 0 1-20.781 8.618c-7.794 0-15.269-3.1-20.78-8.618a29.44 29.44 0 0 1-8.608-20.804V147.88h-19.591v49.036h4.07c5.416 0 9.807 4.391 9.807 9.807s-4.391 9.808-9.807 9.808H37.807c-5.416 0-9.807-4.391-9.807-9.808s4.39-9.807 9.807-9.807zM71.469 59.615c-5.522 0-10 4.477-10 10v38.843c0 5.523 4.477 10 10 10h48.572c5.523 0 10-4.477 10-10V69.615c0-5.523-4.477-10-10-10z"/></svg>
